svg/Pictogram/pictograms-aem-0026r-battery_explosion.svg

<?xml version="1.0" encoding="ISO-8859-1" standalone="yes"?>
<svg height="304.014" width="304.011">
  <metadata>
    <rdf:RDF xmlns:cc="http://web.resource.org/cc/" xmlns:dc="http://purl.org/dc/elements/1.1/" xmlns:rdf="http://www.w3.org/1999/02/22-rdf-syntax-ns#">
      <cc:Work rdf:about="">
        <dc:title></dc:title>
        <dc:description></dc:description>
        <dc:subject>
          <rdf:Bag>
            <rdf:li></rdf:li>
          </rdf:Bag>
        </dc:subject>
        <dc:publisher>
          <cc:Agent rdf:about="http://www.unece.org/trans/danger/publi/ghs/pictograms.html">
            <dc:title>Source: UNECE GHS of Classification and Labeling of Chemicals, Source: AEM Pictorial Database, Source: AEM Pictorial Database, Source: AEM Pictorial Database, Source: AEM Pictorial Database</dc:title>
          </cc:Agent>
        </dc:publisher>
        <dc:creator>
          <cc:Agent>
            <dc:title></dc:title>
          </cc:Agent>
        </dc:creator>
        <dc:rights>
          <cc:Agent>
            <dc:title></dc:title>
          </cc:Agent>
        </dc:rights>
        <dc:date></dc:date>
        <dc:format>image/svg+xml</dc:format>
        <dc:type rdf:resource="http://purl.org/dc/dcmitype/StillImage"/>
        <cc:license rdf:resource="http://en.wikipedia.org/wiki/Public_domain"/>
        <dc:language>en</dc:language>
      </cc:Work>
    </rdf:RDF>
  </metadata>
  <defs><marker id="ArrowEnd" markerHeight="3" markerUnits="strokeWidth" markerWidth="4" orient="auto" refX="0" refY="5" viewBox="0 0 10 10"><path d="M 0 0 L 10 5 L 0 10 z"/></marker><marker id="ArrowStart" markerHeight="3" markerUnits="strokeWidth" markerWidth="4" orient="auto" refX="10" refY="5" viewBox="0 0 10 10"><path d="M 10 0 L 0 5 L 10 10 z"/></marker> </defs>
  <g id="g2958" transform="matrix(1.3532768,0,0,1.3532781,-53.207834,-52.192858)">
    <path d="M 127.694 203.03C 124.835 203.03 70.5696 203.03 67.7102 203.03C 67.7102 200.331 67.7102 172.69 67.7102 169.991C 70.5696 169.991 124.835 169.991 127.694 169.991C 127.694 172.69 127.694 200.331 127.694 203.03zM 129.237 166.905L 122.261 166.905L 122.261 162.37L 113.507 162.37L 113.507 166.905L 81.9446 166.905L 81.9446 162.37L 73.2063 162.37L 73.2063 166.905L 64.6243 166.905L 64.6243 206.116L 130.78 206.116L 130.78 166.905L 129.237 166.905" style="stroke:none; fill-rule:evenodd; fill:#000000"/>
    <path d="M 110.03 182.291L 124.288 182.291L 124.288 178.526L 110.03 178.526L 110.03 182.291z" style="stroke:none; fill-rule:evenodd; fill:#000000"/>
    <path d="M 83.3118 180.178L 78.7102 180.178L 78.7102 175.588L 74.9407 175.588L 74.9407 180.178L 70.3392 180.178L 70.3392 183.948L 74.9407 183.948L 74.9407 188.549L 78.7102 188.549L 78.7102 183.948L 83.3118 183.948L 83.3118 180.178" style="stroke:none; fill-rule:evenodd; fill:#000000"/>
    <path d="M 111.175 91.2374L 111.554 91.4984L 106.343 132.151L 106.85 132.151L 114.729 122.995C 114.089 127.073 112.058 131.264 111.554 135.459L 114.222 133.557L 135.186 116.018L 113.714 154.264L 113.714 154.522C 118.022 154.147 122.1 152.233 126.425 151.475L 116.89 159.092C 114.858 158.963 112.698 159.225 110.78 158.846C 111.175 158.209 112.698 157.323 112.058 156.424C 110.026 157.194 107.995 158.209 105.948 158.846L 106.081 157.963L 113.452 143.975L 113.452 143.596L 112.698 143.596L 101.265 150.838C 100.495 151.084 100.367 150.459 100.249 150.069L 101.64 136.604L 101.382 136.358L 96.679 145.745C 96.0423 143.713 96.0423 141.174 95.4173 139.026C 94.011 141.698 93.7649 145.498 92.2376 147.909L 86.5071 132.92L 86.3899 132.788L 86.0149 133.936L 83.9681 150.838L 83.722 151.084L 76.9876 142.584C 76.7415 147.776 77.3665 152.987 77.6126 158.342C 75.4681 158.081 71.6516 159.6 70.8821 156.932L 60.2181 132.034L 60.2181 131.643L 71.5188 143.205L 71.7806 142.702L 66.3118 115.002L 77.6126 131.397L 78.0071 130.889L 77.7454 88.2024L 77.7454 87.5494L 90.3235 123.385L 92.1087 127.959L 92.4876 127.959L 95.2884 112.971L 95.2884 112.721C 96.679 117.424 95.4173 117.932 96.8118 122.635L 98.597 127.334L 102.019 118.44L 110.913 92.5104C 110.913 92.4834 110.929 92.4094 110.929 92.3504" style="stroke:none; fill-rule:evenodd; fill:#000000"/>
    <path d="M 134.808 198.815L 191.1 134.944C 191.1 134.944 198.061 126.084 206.913 134.94L 244.229 199.455L 198.686 199.455L 185.097 176.37L 162.64 198.827L 134.808 198.815" style="stroke:none; fill-rule:evenodd; fill:#000000"/>
    <path d="M 194.44 111.104C 195.354 125.069 187.026 136.795 173.151 138.799L 166.253 139.307C 162.722 139.557 159.651 136.901 159.397 133.366L 158.784 124.741L 154.073 124.366C 153.261 124.163 152.882 124.19 152.69 123.338C 152.643 123.131 152.757 122.647 152.815 122.455L 154.432 116.725L 157.077 107.342L 157.253 106.729C 157.522 105.823 157.87 104.967 158.28 104.159C 161.53 97.7994 167.491 93.5104 173.612 92.6664L 173.616 92.6664L 174.913 92.4324C 176.604 92.2644 178.265 92.3504 179.796 92.6314L 181.046 93.0534C 187.53 95.0454 192.245 101.03 193.87 107.467L 194.44 111.104zM 164.569 112.401L 163.511 112.217L 163.69 111.147L 161.53 110.776L 161.35 111.85L 160.182 111.655L 159.815 113.811L 160.983 114.01L 160.784 115.163L 162.944 115.53L 163.14 114.377L 164.202 114.557L 164.569 112.401" style="stroke:none; fill-rule:evenodd; fill:#000000"/>
    <path d="M 29.6204 265.393L 2.62042 265.393" style="stroke:#000000; stroke-width:0.5; fill:none"/>
    <path d="M 38.6204 274.393L 38.6204 301.393" style="stroke:#000000; stroke-width:0.5; fill:none"/>
    <path d="M 29.6204 38.6204L 2.62042 38.6204" style="stroke:#000000; stroke-width:0.5; fill:none"/>
    <path d="M 38.6204 29.6204L 38.6204 2.62042" style="stroke:#000000; stroke-width:0.5; fill:none"/>
    <path d="M 274.39 38.6204L 301.39 38.6204" style="stroke:#000000; stroke-width:0.5; fill:none"/>
    <path d="M 265.39 29.6204L 265.39 2.62042" style="stroke:#000000; stroke-width:0.5; fill:none"/>
    <path d="M 274.39 265.393L 301.39 265.393" style="stroke:#000000; stroke-width:0.5; fill:none"/>
    <path d="M 265.39 274.393L 265.39 301.393" style="stroke:#000000; stroke-width:0.5; fill:none"/>
  </g>
</svg>

<svg viewBox="0 0 304.01 304.01"><g transform="matrix(1.35328 0 0 1.35328-53.21-52.19)" fill-rule="evenodd"><path d="m127.69 203.03c-2.859 0-57.12 0-59.984 0 0-2.699 0-30.34 0-33.04 2.859 0 57.12 0 59.984 0 0 2.699 0 30.34 0 33.04m1.543-36.12h-6.976v-4.535h-8.754v4.535h-31.562v-4.535h-8.738v4.535h-8.582v39.21h66.16v-39.21h-1.543"/><path d="m110.03 182.29h14.258v-3.765h-14.258v3.765"/><path d="m83.31 180.18h-4.602v-4.59h-3.769v4.59h-4.602v3.77h4.602v4.601h3.769v-4.601h4.602v-3.77"/><path d="m111.17 91.24l.379.261-5.211 40.653h.507l7.879-9.156c-.64 4.078-2.671 8.269-3.175 12.464l2.668-1.902 20.964-17.539-21.472 38.25v.258c4.308-.375 8.386-2.289 12.711-3.047l-9.535 7.617c-2.032-.129-4.192.133-6.11-.246.395-.637 1.918-1.523 1.278-2.422-2.032.77-4.063 1.785-6.11 2.422l.133-.883 7.371-13.988v-.379h-.754l-11.433 7.242c-.77.246-.898-.379-1.016-.769l1.391-13.465-.258-.246-4.703 9.387c-.637-2.032-.637-4.571-1.262-6.719-1.406 2.672-1.652 6.472-3.18 8.883l-5.731-14.989-.117-.132-.375 1.148-2.047 16.902-.246.246-6.734-8.5c-.246 5.192.379 10.403.625 15.758-2.144-.261-5.961 1.258-6.731-1.41l-10.664-24.898v-.391l11.301 11.562.262-.503-5.469-27.7 11.301 16.395.394-.508-.262-42.687v-.653l12.578 35.836 1.785 4.574h.379l2.801-14.988v-.25c1.391 4.703.129 5.211 1.523 9.914l1.785 4.699 3.422-8.894 8.894-25.93c0-.027.016-.101.016-.16"/><path d="m134.81 198.81l56.29-63.871c0 0 6.961-8.86 15.813-.004l37.32 64.52h-45.543l-13.589-23.09-22.457 22.457-27.832-.012"/><path d="m194.44 111.1c.914 13.965-7.414 25.691-21.289 27.695l-6.898.508c-3.531.25-6.602-2.406-6.856-5.941l-.613-8.625-4.711-.375c-.812-.203-1.191-.176-1.383-1.028-.047-.207.067-.691.125-.883l1.617-5.73 2.645-9.383.176-.613c.269-.906.617-1.762 1.027-2.57 3.25-6.36 9.211-10.649 15.332-11.493h.004l1.297-.234c1.691-.168 3.352-.082 4.883.199l1.25.422c6.484 1.992 11.199 7.977 12.824 14.414l.57 3.637m-29.871 1.297l-1.058-.184.179-1.07-2.16-.371-.18 1.074-1.168-.195-.367 2.156 1.168.199-.199 1.153 2.16.367.196-1.153 1.062.18.367-2.156"/></g></svg>
